assets/lock.svg

<?xml version="1.0"?><svg fill="#000000" xmlns="http://www.w3.org/2000/svg" viewBox="0 0 24 24" preserveAspectRatio="none">    <path d="M 12 1 C 8.6761905 1 6 3.6761905 6 7 L 6 8 C 4.9069372 8 4 8.9069372 4 10 L 4 20 C 4 21.093063 4.9069372 22 6 22 L 18 22 C 19.093063 22 20 21.093063 20 20 L 20 10 C 20 8.9069372 19.093063 8 18 8 L 18 7 C 18 3.6761905 15.32381 1 12 1 z M 12 3 C 14.27619 3 16 4.7238095 16 7 L 16 8 L 8 8 L 8 7 C 8 4.7238095 9.7238095 3 12 3 z M 6 10 L 18 10 L 18 20 L 6 20 L 6 10 z M 12 13 C 10.9 13 10 13.9 10 15 C 10 16.1 10.9 17 12 17 C 13.1 17 14 16.1 14 15 C 14 13.9 13.1 13 12 13 z"/></svg>

<?xml version="1.0" encoding="UTF-8"?>
<svg fill="#000000" preserveAspectRatio="none" version="1.1" viewBox="0 0 24 24" xmlns="http://www.w3.org/2000/svg"><path d="m12 1c-3.3238 0-6 2.6762-6 6v1c-1.0931 0-2 0.90694-2 2v10c0 1.0931 0.90694 2 2 2h12c1.0931 0 2-0.90694 2-2v-10c0-1.0931-0.90694-2-2-2v-1c0-3.3238-2.6762-6-6-6zm0 2c2.2762 0 4 1.7238 4 4v1h-8v-1c0-2.2762 1.7238-4 4-4zm-6 7h12v10h-12v-10zm6 3c-1.1 0-2 0.9-2 2s0.9 2 2 2 2-0.9 2-2-0.9-2-2-2z"/></svg>
